src/components/pages/get-involved/report-bugs/images/illustration.svg

<svg xmlns="http://www.w3.org/2000/svg" width="486" height="486" viewBox="0 0 486 486" fill="none"><circle opacity=".3" cx="243" cy="243" r="185" stroke="#000" stroke-width="3" stroke-linecap="round" stroke-linejoin="round" stroke-dasharray="0.01 10"/><circle cx="75" cy="321" r="4" fill="#000"/><circle cx="415" cy="174" r="4" fill="#000"/><circle cx="414" cy="316" r="28" fill="#0073E6"/><g clip-path="url(#illustration_svg__a)" fill="#fff"><path d="M414.001 305.5c1.62.003 3.218.383 4.666 1.109a4.664 4.664 0 0 0-4.66-4.433 4.668 4.668 0 0 0-4.661 4.433 10.463 10.463 0 0 1 4.655-1.109Z"/><path d="M428 310.167V309h-2.333v1.167a2.335 2.335 0 0 1-2.334 2.333h-.687a9.32 9.32 0 0 0-13.861-4.239 9.316 9.316 0 0 0-3.431 4.239h-.687a2.334 2.334 0 0 1-2.334-2.333V309H400v1.167a4.666 4.666 0 0 0 4.667 4.666h.08a9.3 9.3 0 0 0-.08 1.167v1.167H400v2.333h4.667v1.167c.002.39.029.779.08 1.166h-.08A4.667 4.667 0 0 0 400 326.5v1.167h2.333V326.5a2.333 2.333 0 0 1 2.334-2.333h.687a9.322 9.322 0 0 0 13.861 4.239 9.322 9.322 0 0 0 3.431-4.239h.687a2.33 2.33 0 0 1 2.334 2.333v1.167H428V326.5a4.667 4.667 0 0 0-4.667-4.667h-.08c.051-.387.078-.776.08-1.166V319.5H428v-2.333h-4.667V316a9.3 9.3 0 0 0-.08-1.167h.08a4.666 4.666 0 0 0 4.667-4.666Z"/></g><circle cx="72" cy="171" r="28" fill="#0073E6"/><circle cx="70" cy="169" r="10" stroke="#fff" stroke-width="3" stroke-miterlimit="10" stroke-linecap="square"/><path d="m84 183-6-6" stroke="#fff" stroke-width="4" stroke-miterlimit="10" stroke-linecap="round" stroke-linejoin="round"/><circle cx="243" cy="243" r="125" stroke="#E0A66C" stroke-width="2"/><circle opacity=".15" cx="243" cy="243" r="112" stroke="#000" stroke-linecap="round" stroke-linejoin="round"/><path d="m300.1 196.23-56-17.067a3.799 3.799 0 0 0-2.2 0l-56 17.067a4 4 0 0 0-2.094 1.534 4.454 4.454 0 0 0-.806 2.57c0 83.11 58.068 106.197 58.656 106.414a3.71 3.71 0 0 0 2.688 0c11.189-4.961 21.257-12.411 29.532-21.853C287.164 270.222 303 243.632 303 200.334c0-.927-.282-1.83-.806-2.57a4 4 0 0 0-2.094-1.534Z" fill="url(#illustration_svg__b)"/><path d="M259 235h-32a6 6 0 0 0-6 6v18a6 6 0 0 0 6 6h32a6 6 0 0 0 6-6v-18a6 6 0 0 0-6-6Z" fill="#824C17"/><path d="M233 235v-10.182c0-5.422 4.396-9.818 9.818-9.818h.364c5.422 0 9.818 4.396 9.818 9.818V235" stroke="#824C17" stroke-width="6" stroke-miterlimit="10" stroke-linecap="square"/><circle opacity=".15" cx="243" cy="243" r="242" stroke="#000" stroke-linecap="round" stroke-linejoin="round"/><defs><linearGradient id="illustration_svg__b" x1="303" y1="179" x2="183.421" y2="307.392" gradientUnits="userSpaceOnUse"><stop stop-color="#E0A66C"/><stop offset=".283" stop-color="#E0A66C"/><stop offset=".499" stop-color="#F0CCA8"/><stop offset=".698" stop-color="#E0A66C"/><stop offset="1" stop-color="#E0A66C"/></linearGradient><clipPath id="illustration_svg__a"><path fill="#fff" transform="translate(400 302)" d="M0 0h28v28H0z"/></clipPath></defs></svg>

<svg width="486" height="486" viewBox="0 0 486 486" fill="none" xmlns="http://www.w3.org/2000/svg">
<circle opacity="0.3" cx="243" cy="243" r="185" stroke="white" stroke-width="3" stroke-linecap="round" stroke-linejoin="round" stroke-dasharray="0.01 10"/>
<circle cx="75" cy="321" r="4" fill="white"/>
<circle cx="415" cy="174" r="4" fill="white"/>
<circle cx="414" cy="316" r="28" fill="#0073E6"/>
<g clip-path="url(#clip0_3303_6572)">
<path d="M414.001 305.5C415.621 305.503 417.219 305.883 418.667 306.609C418.608 305.413 418.09 304.286 417.223 303.461C416.355 302.636 415.204 302.176 414.007 302.176C412.809 302.176 411.658 302.636 410.79 303.461C409.923 304.286 409.406 305.413 409.346 306.609C410.791 305.885 412.384 305.505 414.001 305.5Z" fill="white"/>
<path d="M428 310.167V309H425.667V310.167C425.667 310.785 425.421 311.379 424.983 311.817C424.546 312.254 423.952 312.5 423.333 312.5H422.646C421.951 310.777 420.756 309.3 419.215 308.261C417.675 307.221 415.858 306.666 414 306.666C412.142 306.666 410.325 307.221 408.785 308.261C407.244 309.3 406.049 310.777 405.354 312.5H404.667C404.048 312.5 403.454 312.254 403.017 311.817C402.579 311.379 402.333 310.785 402.333 310.167V309H400V310.167C400 311.404 400.492 312.591 401.367 313.466C402.242 314.342 403.429 314.833 404.667 314.833H404.747C404.696 315.22 404.669 315.61 404.667 316V317.167H400V319.5H404.667V320.667C404.669 321.057 404.696 321.446 404.747 321.833H404.667C403.429 321.833 402.242 322.325 401.367 323.2C400.492 324.075 400 325.262 400 326.5V327.667H402.333V326.5C402.333 325.881 402.579 325.288 403.017 324.85C403.454 324.412 404.048 324.167 404.667 324.167H405.354C406.049 325.89 407.244 327.366 408.785 328.406C410.325 329.445 412.142 330 414 330C415.858 330 417.675 329.445 419.215 328.406C420.756 327.366 421.951 325.89 422.646 324.167H423.333C423.952 324.167 424.546 324.412 424.983 324.85C425.421 325.288 425.667 325.881 425.667 326.5V327.667H428V326.5C428 325.262 427.508 324.075 426.633 323.2C425.758 322.325 424.571 321.833 423.333 321.833H423.253C423.304 321.446 423.331 321.057 423.333 320.667V319.5H428V317.167H423.333V316C423.331 315.61 423.304 315.22 423.253 314.833H423.333C424.571 314.833 425.758 314.342 426.633 313.466C427.508 312.591 428 311.404 428 310.167Z" fill="white"/>
</g>
<circle cx="72" cy="171" r="28" fill="#0073E6"/>
<circle cx="70" cy="169" r="10" stroke="white" stroke-width="3" stroke-miterlimit="10" stroke-linecap="square"/>
<path d="M84 183L78 177" stroke="white" stroke-width="4" stroke-miterlimit="10" stroke-linecap="round" stroke-linejoin="round"/>
<circle cx="243" cy="243" r="125" stroke="#E0A66C" stroke-width="2"/>
<circle opacity="0.15" cx="243" cy="243" r="112" stroke="white" stroke-linecap="round" stroke-linejoin="round"/>
<path d="M300.1 196.23L244.1 179.163C243.381 178.946 242.619 178.946 241.9 179.163L185.9 196.23C185.064 196.485 184.329 197.023 183.806 197.764C183.282 198.504 183 199.407 183 200.334C183 283.444 241.068 306.531 241.656 306.748C242.524 307.084 243.476 307.084 244.344 306.748C255.533 301.787 265.601 294.337 273.876 284.895C287.164 270.222 303 243.632 303 200.334C303 199.407 302.718 198.504 302.194 197.764C301.671 197.023 300.936 196.485 300.1 196.23Z" fill="url(#paint0_linear_3303_6572)"/>
<path d="M259 235H227C223.686 235 221 237.686 221 241V259C221 262.314 223.686 265 227 265H259C262.314 265 265 262.314 265 259V241C265 237.686 262.314 235 259 235Z" fill="#824C17"/>
<path d="M233 235V224.818C233 219.396 237.396 215 242.818 215H243.182C248.604 215 253 219.396 253 224.818V235" stroke="#824C17" stroke-width="6" stroke-miterlimit="10" stroke-linecap="square"/>
<circle opacity="0.15" cx="243" cy="243" r="242" stroke="white" stroke-linecap="round" stroke-linejoin="round"/>
<defs>
<linearGradient id="paint0_linear_3303_6572" x1="303" y1="179" x2="183.421" y2="307.392" gradientUnits="userSpaceOnUse">
<stop stop-color="#E0A66C"/>
<stop offset="0.282783" stop-color="#E0A66C"/>
<stop offset="0.499354" stop-color="#F0CCA8"/>
<stop offset="0.698135" stop-color="#E0A66C"/>
<stop offset="1" stop-color="#E0A66C"/>
</linearGradient>
<clipPath id="clip0_3303_6572">
<rect width="28" height="28" fill="white" transform="translate(400 302)"/>
</clipPath>
</defs>
</svg>
